icons/1_Primary/Rakuten.svg

<svg xmlns="http://www.w3.org/2000/svg" viewBox="0 0 1024 1024">
   <circle cx="512" cy="512" r="512" style="fill:#bf0000"/>
   <path d="M370.719 398.09v165.788h28.776v-51.156l42.014 51.156h39.283l-56.178-66.222 48.41-58.462h-39.276l-34.253 43.387V398.09ZM132.32 408.134v155.28h29.686V515.46h20.552l36.082 47.954h36.991l-43.842-57.998c13.701-9.59 22.38-25.574 22.38-43.842 0-29.686-24.21-53.44-53.44-53.44zm473.147 0v31.06h-15.066v29.686h15.066v53.43c0 27.86 21.014 44.307 42.023 44.307 7.764 0 18.725-2.746 27.402-7.77l-18.268-24.655c-2.74 1.827-5.945 3.194-9.598 3.194-4.567 0-13.238-3.658-13.238-15.075V468.88h24.2v-29.686h-24.2v-31.06zM299.93 436c-31.97 0-56.624 29.224-56.624 65.304s24.198 65.313 56.624 65.313c10.505 0 18.272-3.199 26.493-8.68v5.477h28.312v-124.22h-28.312v5.477c-8.678-5.48-15.988-8.67-26.493-8.67zm422 0c-32.883 0-56.17 28.768-56.17 65.304 0 38.363 29.222 65.313 58.908 65.313 15.071 0 33.798-5.022 49.783-27.858l-25.12-14.62c-19.18 28.316-51.605 14.162-55.259-14.61h81.298C782.677 465.684 753.899 436 721.93 436zm117.834.455c-13.702 0-24.21 7.76-24.21 7.76v-5.021h-28.312v124.22h28.312v-72.609c0-13.701 9.59-25.119 23.29-25.119 13.702 0 23.3 11.418 23.3 25.12v73.072h28.312v-73.073c0-30.143-20.55-54.35-50.693-54.35zm-677.756 1.365h19.178c13.245 0 24.21 10.964 24.21 24.209 0 13.244-10.965 24.209-24.21 24.209h-19.178zm315.583 1.374v73.073c0 30.142 20.55 54.35 50.693 54.35 13.701 0 24.209-7.77 24.209-7.77v4.567h28.312v-124.22h-28.312v73.073c0 13.701-9.59 25.119-23.29 25.119-13.702 0-23.29-11.418-23.29-25.12v-73.072zm243.83 23.86c11.246-.228 22.432 6.966 25.172 22.265H695.9c2.968-14.386 14.274-22.036 25.52-22.264zm-421.946 3.542c15.985 0 26.948 15.525 26.948 35.163.457 19.638-10.963 35.172-26.948 35.172-15.984 0-27.402-15.534-27.402-35.172 0-19.638 11.418-35.163 27.402-35.163zm-15.53 120.573 36.537 36.536 421.544-36.536z" style="fill:#fff"/>
</svg>

<svg width="1024" height="1024" viewBox="0 0 1024 1024" fill="none" xmlns="http://www.w3.org/2000/svg">
<g clip-path="url(#clip0_2_3291)">
<path d="M512 1024C794.77 1024 1024 794.77 1024 512C1024 229.23 794.77 0 512 0C229.23 0 0 229.23 0 512C0 794.77 229.23 1024 512 1024Z" fill="#BA6561"/>
<path d="M370.719 398.09V563.878H399.495V512.722L441.509 563.878H480.792L424.614 497.656L473.024 439.194H433.748L399.495 482.581V398.09H370.719ZM132.32 408.134V563.414H162.006V515.46H182.558L218.64 563.414H255.631L211.789 505.416C225.49 495.826 234.169 479.842 234.169 461.574C234.169 431.888 209.959 408.134 180.729 408.134H132.32ZM605.467 408.134V439.194H590.401V468.88H605.467V522.31C605.467 550.17 626.481 566.617 647.49 566.617C655.254 566.617 666.215 563.871 674.892 558.847L656.624 534.192C653.884 536.019 650.679 537.386 647.026 537.386C642.459 537.386 633.788 533.728 633.788 522.311V468.88H657.988V439.194H633.788V408.134H605.467ZM299.93 436C267.96 436 243.306 465.224 243.306 501.304C243.306 537.384 267.504 566.617 299.93 566.617C310.435 566.617 318.202 563.418 326.423 557.937V563.414H354.735V439.194H326.423V444.671C317.745 439.191 310.435 436.001 299.93 436.001V436ZM721.93 436C689.047 436 665.76 464.768 665.76 501.304C665.76 539.667 694.982 566.617 724.668 566.617C739.739 566.617 758.466 561.595 774.451 538.759L749.331 524.139C730.151 552.455 697.726 538.301 694.072 509.529H775.37C782.677 465.684 753.899 436 721.93 436ZM839.764 436.455C826.062 436.455 815.554 444.215 815.554 444.215V439.194H787.242V563.414H815.554V490.805C815.554 477.104 825.144 465.686 838.844 465.686C852.546 465.686 862.144 477.104 862.144 490.806V563.878H890.456V490.805C890.456 460.662 869.907 436.455 839.764 436.455ZM162.008 437.82H181.186C194.431 437.82 205.396 448.784 205.396 462.029C205.396 475.273 194.431 486.238 181.186 486.238H162.008V437.82ZM477.591 439.194V512.267C477.591 542.409 498.141 566.617 528.284 566.617C541.985 566.617 552.493 558.847 552.493 558.847V563.414H580.805V439.194H552.493V512.267C552.493 525.968 542.903 537.386 529.203 537.386C515.501 537.386 505.913 525.968 505.913 512.266V439.194H477.591ZM721.421 463.054C732.667 462.826 743.853 470.02 746.593 485.319H695.9C698.868 470.933 710.174 463.283 721.42 463.055L721.421 463.054ZM299.475 466.596C315.46 466.596 326.423 482.121 326.423 501.759C326.88 521.397 315.46 536.931 299.475 536.931C283.491 536.931 272.073 521.397 272.073 501.759C272.073 482.121 283.491 466.596 299.475 466.596ZM283.945 587.169L320.482 623.705L742.026 587.169H283.945Z" fill="white"/>
</g>
<defs>
<clipPath id="clip0_2_3291">
<rect width="1024" height="1024" fill="white"/>
</clipPath>
</defs>
</svg>
